X: 108
T: Polly's Fancy
B: 204 Favourite Country Dances
N: Published by Straight & Skillern, London ca.1775
F: http://imslp.org/wiki/204_Favourite_Country_Dances_(Various) p.54 #108
Z: 2014 John Chambers <jc:trillian.mit.edu>
M: 2/4
L: 1/8
K: G
% - - - - - - - - - - - - - - - - - - - - - - - - -
B/c/ |\
dBGB | cAFA | BGEG | FDD B/c/ |\
dBGB | cAFA | BGEF | G2G, :|
|: G/A/ |\
BGGB | AFFA | GEEG | FADF |\
GBBG | FAAF | EcAF | G3 :|
% - - - - - - - - - - - - - - - - - - - - - - - - -
%%begintext align
%% Hands 6 round, the same back again, cross
%% over 1 Cu. lead thro the bottom & cast up
%%endtext

%%sep 1 1 500
%%sep 1 1 500
